packages/sources/icons/src/vitamix/volume-down-fill.svg

<svg width="16" height="16" viewBox="0 0 16 16" xmlns="http://www.w3.org/2000/svg"><path fill-rule="evenodd" clip-rule="evenodd" d="M3.33341 10.6666H5.92608L9.45541 13.5546C9.55509 13.6364 9.69296 13.6533 9.80944 13.5981C9.92593 13.5429 10.0002 13.4255 10.0001 13.2966V2.70331C10.0002 2.57441 9.92593 2.45702 9.80944 2.40184C9.69296 2.34666 9.55509 2.36359 9.45541 2.44531L5.92608 5.33331H3.33341C2.96522 5.33331 2.66675 5.63179 2.66675 5.99998V9.99998C2.66675 10.3682 2.96522 10.6666 3.33341 10.6666ZM11.6274 10.1126L12.5754 11.0606C13.4467 10.3266 14 9.22796 14 7.99996C14.0011 6.72859 13.3968 5.53266 12.3727 4.7793L11.4134 5.73863C12.1667 6.20996 12.6667 7.04663 12.6667 7.99996C12.6675 8.82745 12.2834 9.60822 11.6274 10.1126Z"/></svg>

<svg width="16" height="16" xmlns="http://www.w3.org/2000/svg"><path fill-rule="evenodd" clip-rule="evenodd" d="M3.333 10.667h2.593l3.53 2.888a.333.333 0 0 0 .544-.258V2.703a.333.333 0 0 0-.545-.258L5.926 5.333H3.333A.667.667 0 0 0 2.667 6v4c0 .368.298.667.666.667Zm8.294-.554.948.948A3.991 3.991 0 0 0 14 8a3.994 3.994 0 0 0-1.627-3.22l-.96.959A2.663 2.663 0 0 1 12.667 8c0 .827-.384 1.608-1.04 2.113Z"/></svg>
